svgs/thin/diagram-successor.svg

<svg xmlns="http://www.w3.org/2000/svg" viewBox="0 0 512 512"><!--! Font Awesome Pro 6.4.0 by @fontawesome - https://fontawesome.com License - https://fontawesome.com/license (Commercial License) Copyright 2023 Fonticons, Inc. --><path d="M496 352c0-26.5-21.5-48-48-48L64 304c-26.5 0-48 21.5-48 48l0 64c0 26.5 21.5 48 48 48l384 0c26.5 0 48-21.5 48-48l0-64zm16 64c0 35.3-28.7 64-64 64L64 480c-35.3 0-64-28.7-64-64l0-64c0-35.3 28.7-64 64-64l384 0c35.3 0 64 28.7 64 64l0 64zM272 96c0-26.5-21.5-48-48-48l-32 0L64 48C37.5 48 16 69.5 16 96l0 64c0 26.5 21.5 48 48 48l160 0c26.5 0 48-21.5 48-48l0-64zm-5.7-48C279.6 59.7 288 76.9 288 96l0 64c0 35.3-28.7 64-64 64L64 224c-35.3 0-64-28.7-64-64L0 96C0 60.7 28.7 32 64 32l128 0 32 0 144 0c30.9 0 56 25.1 56 56l0 116.7 50.3-50.3c3.1-3.1 8.2-3.1 11.3 0s3.1 8.2 0 11.3l-64 64c-3.1 3.1-8.2 3.1-11.3 0l-64-64c-3.1-3.1-3.1-8.2 0-11.3s8.2-3.1 11.3 0L408 204.7 408 88c0-22.1-17.9-40-40-40L266.3 48zM80 376l352 0c4.4 0 8 3.6 8 8s-3.6 8-8 8L80 392c-4.4 0-8-3.6-8-8s3.6-8 8-8z"/></svg>

<svg xmlns="http://www.w3.org/2000/svg" viewBox="0 0 512 512"><!--! Font Awesome Pro 6.3.0 by @fontawesome - https://fontawesome.com License - https://fontawesome.com/license (Commercial License) Copyright 2023 Fonticons, Inc. --><path d="M432 376C436.4 376 440 379.6 440 384C440 388.4 436.4 392 432 392H80C75.58 392 72 388.4 72 384C72 379.6 75.58 376 80 376H432zM512 416C512 451.3 483.3 480 448 480H64C28.65 480 0 451.3 0 416V352C0 316.7 28.65 288 64 288H448C483.3 288 512 316.7 512 352V416zM448 304H64C37.49 304 16 325.5 16 352V416C16 442.5 37.49 464 64 464H448C474.5 464 496 442.5 496 416V352C496 325.5 474.5 304 448 304zM266.3 48C279.6 59.73 288 76.88 288 96V160C288 195.3 259.3 224 224 224H64C28.65 224 0 195.3 0 160V96C0 60.65 28.65 32 64 32H368C398.9 32 424 57.07 424 88V204.7L474.3 154.3C477.5 151.2 482.5 151.2 485.7 154.3C488.8 157.5 488.8 162.5 485.7 165.7L421.7 229.7C418.5 232.8 413.5 232.8 410.3 229.7L346.3 165.7C343.2 162.5 343.2 157.5 346.3 154.3C349.5 151.2 354.5 151.2 357.7 154.3L408 204.7V88C408 65.91 390.1 48 368 48H266.3zM224 48H64C37.49 48 16 69.49 16 96V160C16 186.5 37.49 208 64 208H224C250.5 208 272 186.5 272 160V96C272 69.49 250.5 48 224 48z"/></svg>
